assets/img/shared/join-logo-white.svg

<?xml version="1.0" encoding="UTF-8" standalone="no"?>
<svg
   width="128"
   height="128"
   viewBox="-14 -3 128 128"
   fill="none"
   version="1.1"
   id="svg6"
   xmlns="http://www.w3.org/2000/svg"
   xmlns:svg="http://www.w3.org/2000/svg">
  <defs
     id="defs6" />
  <path
     d="M 71.6725,0 H 49.5146 v 25.4923 h 22.1579 z"
     fill="#ffffff"
     id="path1" />
  <path
     d="m 49.5142,46.2251 h 22.1579 v 35.9528 c 0.1012,8.6513 -2.3609,17.1374 -7.0735,24.3791 -4.6531,7.037 -13.6356,15.409 -30.254,15.409 C 16.2434,121.966 5.69286,113.406 0,108.715 L 13.9765,91.4743 c 5.5565,4.5369 10.9085,8.2692 20.4534,8.2692 7.2268,0 10.1073,-2.9447 11.7948,-5.5128 2.2939,-3.567 3.4805,-7.7384 3.4088,-11.9843 z"
     fill="#ffffff"
     id="path2" />
  <path
     d="M 38.2135,30.1318 H 16.0557 v 22.2566 h 22.1578 z"
     fill="#29abe2"
     id="path3" />
  <path
     d="m 83.2795,111.522 c 0,4.743 -2.4033,7.293 -5.7611,7.293 -3.3577,0 -5.5565,-3.03 -5.5565,-7.053 0,-4.023 2.2669,-7.208 5.744,-7.208 3.4771,0 5.5736,3.133 5.5736,6.968 z m -8.7439,0.189 c 0,2.859 1.142,4.964 3.1021,4.964 1.9601,0 3.068,-2.225 3.068,-5.136 0,-2.551 -1.0226,-4.947 -3.068,-4.947 -2.0453,0 -3.1021,2.311 -3.1021,5.119 z"
     fill="#ffffff"
     id="path4" />
  <path
     d="m 87.6771,104.76 v 13.833 H 85.2227 V 104.76 Z"
     fill="#ffffff"
     id="path5" />
  <path
     d="M 90.3359,118.593 V 104.76 h 2.7272 l 2.9316,5.701 c 0.7547,1.491 1.4262,3.022 2.0113,4.588 -0.1534,-1.712 -0.2216,-3.681 -0.2216,-5.872 v -4.417 h 2.2496 v 13.833 h -2.5394 l -2.9657,-5.821 c -0.7852,-1.529 -1.4851,-3.101 -2.0965,-4.708 0,1.712 0.1193,3.647 0.1193,6.026 v 4.486 z"
     fill="#ffffff"
     id="path6" />
</svg>

<svg width="101" height="122" viewBox="0 0 101 122" fill="none" xmlns="http://www.w3.org/2000/svg">
<path d="M71.6721 0H49.5143V25.4923H71.6721V0Z" fill="white"/>
<path d="M49.5142 46.2251H71.6721V82.1779C71.7733 90.8292 69.3112 99.3153 64.5986 106.557C59.9455 113.594 50.963 121.966 34.3446 121.966C16.2434 121.966 5.69286 113.406 0 108.715L13.9765 91.4743C19.533 96.0112 24.885 99.7435 34.4299 99.7435C41.6567 99.7435 44.5372 96.7988 46.2247 94.2307C48.5186 90.6637 49.7052 86.4923 49.6335 82.2464L49.5142 46.2251Z" fill="white"/>
<path d="M38.2137 30.1318H16.0559V52.3884H38.2137V30.1318Z" fill="#29ABE2"/>
<path d="M83.2793 111.522C83.2793 116.265 80.8761 118.815 77.5183 118.815C74.1605 118.815 71.9618 115.785 71.9618 111.762C71.9618 107.739 74.2287 104.554 77.7058 104.554C81.1829 104.554 83.2793 107.687 83.2793 111.522ZM74.5355 111.711C74.5355 114.57 75.6775 116.675 77.6376 116.675C79.5977 116.675 80.7056 114.45 80.7056 111.539C80.7056 108.988 79.6829 106.592 77.6376 106.592C75.5923 106.592 74.5355 108.903 74.5355 111.711Z" fill="white"/>
<path d="M87.6768 104.76V118.593H85.2224V104.76H87.6768Z" fill="white"/>
<path d="M90.3358 118.593V104.76H93.0629L95.9946 110.461C96.7493 111.952 97.4207 113.483 98.0058 115.049C97.8524 113.337 97.7843 111.368 97.7843 109.177V104.76H100.034V118.593H97.4945L94.5288 112.772C93.7436 111.243 93.0437 109.671 92.4323 108.064C92.4323 109.776 92.5516 111.711 92.5516 114.09V118.576L90.3358 118.593Z" fill="white"/>
</svg>
